X:391
T: HEU MARTIS ALEA
N: E0314
O: Europa, Mitteleuropa, Deutschland
R: historisches Lied, Dreissigjaehriger Krieg
M: 2/2
L: 1/8
K: C
C2 | C3CC2D2 | E4z2
E2 | E3EE2D2 | E3ED2
E2 | ^E2=E2D2C2 | D4z2
D2 | D3ED2C2 | B,2C2D2
D2 | D3ED2C2 | B,2C2D2
G,2 | A,2C2C2B,2 | C6

@@@ Tune index: 4041
